brandFactory_export/2.Regular/Documento_Archivo musica_2Regular.svg

<?xml version="1.0" encoding="UTF-8"?>
<svg width="24px" height="24px" viewBox="0 0 24 24" version="1.1" xmlns="http://www.w3.org/2000/svg" xmlns:xlink="http://www.w3.org/1999/xlink">
    <title>2.Regular/Documento_Archivo musica_2Regular</title>
    <g id="Symbols" stroke="none" stroke-width="1" fill="none" fill-rule="evenodd">
        <g id="2.Regular/Documento_Archivo-musica_2Regular" fill="#5CB615" fill-rule="nonzero">
            <path d="M19.312605,21.9630252 L19.312605,8.24201681 L16.5798319,8.24201681 C15.3798319,8.24201681 14.3478992,7.84537815 13.5882353,7.09915966 C12.8218487,6.34285714 12.4151261,5.31428571 12.4151261,4.1210084 L12.4151261,1.45882353 L4.69411765,1.45882353 C4.60672269,1.45882353 4.47226891,1.58991597 4.46554622,1.6605042 L4.46554622,21.9630252 C4.46554622,22.0336134 4.58319328,22.1647059 4.69411765,22.1647059 L19.0840336,22.1647059 C19.1983193,22.1647059 19.312605,22.0504202 19.312605,21.9630252 Z M13.8470588,2.00336134 L13.8470588,4.1210084 C13.8470588,4.91092437 14.102521,5.57647059 14.5831933,6.05042017 C15.0705882,6.52773109 15.7596639,6.78319328 16.5798319,6.78319328 L18.707563,6.78319328 L13.8470588,2.00336134 Z M20.687395,6.91092437 C20.7243697,6.99831933 20.7445378,7.09579832 20.7445378,7.19663866 L20.7445378,21.9630252 C20.7445378,22.8638655 19.9815126,23.6235294 19.0806723,23.6235294 L4.6907563,23.6235294 C3.80336134,23.6235294 3.02689076,22.8470588 3.02689076,21.9630252 L3.02689076,1.6605042 C3.02689076,0.789915966 3.82016807,0 4.6907563,0 L13.4504202,0 C13.7226891,0 13.9815126,0.104201681 14.1764706,0.299159664 L20.4319328,6.45042017 C20.5630252,6.57815126 20.6403361,6.74285714 20.687395,6.91092437 Z M15.2756303,12.3831933 L15.2756303,11.6504202 L10.7848739,10.4134454 L10.7848739,11.1462185 L15.2756303,12.3831933 Z M14.3478992,19.6907563 C14.9630252,19.6773109 15.2756303,19.3411765 15.2756303,18.6890756 C15.2756303,18.0369748 14.9596639,17.6941176 14.3411765,17.6806723 L14.2067227,17.6806723 C13.2991597,17.6907563 13.2991597,18.4369748 13.2991597,18.6823529 C13.2991597,19.3445378 13.6084034,19.6840336 14.2235294,19.6941176 L14.3478992,19.6941176 L14.3478992,19.6907563 Z M8.62689076,17.2806723 C9.22857143,17.2672269 9.54117647,16.9310924 9.54117647,16.2789916 C9.54117647,15.6235294 9.22521008,15.2840336 8.60336134,15.2672269 L8.47226891,15.2672269 C7.56470588,15.2739496 7.56470588,16.0235294 7.56470588,16.2655462 C7.56470588,16.9277311 7.87394958,17.2672269 8.48907563,17.2773109 L8.62689076,17.2773109 L8.62689076,17.2806723 Z M15.7630252,10.4739496 C16.189916,10.5277311 16.5193277,10.9008403 16.5193277,11.3478992 L16.5193277,18.6857143 C16.5193277,20.3294118 15.3630252,20.9344538 14.3714286,20.9512605 L14.2,20.9512605 C13.2117647,20.9378151 12.0521008,20.3327731 12.0521008,18.6756303 C12.0521008,17.0184874 13.2084034,16.4168067 14.1932773,16.410084 L14.3647059,16.4134454 C14.6672269,16.4201681 14.9798319,16.4907563 15.2722689,16.6151261 L15.2722689,13.6907563 L10.7815126,12.4504202 L10.7647059,16.4470588 C10.6840336,17.9495798 9.58823529,18.5210084 8.63361345,18.5411765 L8.46218487,18.5411765 C7.47394958,18.5277311 6.31428571,17.9226891 6.31428571,16.2655462 C6.31428571,14.6084034 7.46722689,14.010084 8.45546218,14 L8.62689076,14 C8.92941176,14.0067227 9.24201681,14.0773109 9.53445378,14.2016807 L9.53445378,9.89243697 C9.53445378,9.40840336 9.9210084,9.01176471 10.3983193,9.01176471 L10.5596639,9.03529412 L15.7630252,10.4739496 L15.7630252,10.4739496 Z" id="Documento_Archivo-musica_2Regular"></path>
        </g>
    </g>
</svg>

<svg width="24" height="24" viewBox="0 0 24 24" xmlns="http://www.w3.org/2000/svg"><path d="M19.313 21.963V8.242H16.58c-1.2 0-2.232-.397-2.992-1.143-.766-.756-1.173-1.785-1.173-2.978V1.459h-7.72c-.088 0-.223.13-.23.202v20.302c0 .07.118.202.23.202h14.389c.114 0 .229-.115.229-.202zm-5.466-19.96v2.118c0 .79.256 1.455.736 1.93.488.477 1.177.732 1.997.732h2.128l-4.86-4.78zm6.84 4.908a.735.735 0 01.058.286v14.766c0 .9-.763 1.66-1.664 1.66H4.69c-.888 0-1.664-.776-1.664-1.66V1.661C3.027.79 3.82 0 4.69 0h8.76c.272 0 .53.104.725.3l6.256 6.15c.131.128.208.293.255.46zm-5.411 5.472v-.733l-4.491-1.237v.733l4.49 1.237zm-.928 7.308c.615-.014.928-.35.928-1.002s-.316-.995-.935-1.008h-.134c-.908.01-.908.756-.908 1.001 0 .663.31 1.002.925 1.012h.124v-.003zm-5.721-2.41c.602-.014.914-.35.914-1.002 0-.655-.316-.995-.938-1.012h-.13c-.908.007-.908.757-.908.999 0 .662.309 1.001.924 1.011h.138v.004zm7.136-6.807a.876.876 0 01.756.874v7.338c0 1.643-1.156 2.248-2.148 2.265H14.2c-.988-.013-2.148-.618-2.148-2.275 0-1.658 1.156-2.26 2.141-2.266l.172.003c.302.007.615.078.907.202v-2.924l-4.49-1.24-.017 3.996c-.081 1.503-1.177 2.074-2.131 2.094h-.172c-.988-.013-2.148-.618-2.148-2.275 0-1.658 1.153-2.256 2.141-2.266h.172c.302.007.615.077.907.202v-4.31c0-.484.387-.88.864-.88l.162.023 5.203 1.439z" fill="#5CB615" fill-rule="nonzero"/></svg>
